src/Pure-Dark/16/symbolic/status/network-wireless-error-symbolic.svg

<?xml version="1.0" encoding="UTF-8" standalone="no"?>
<svg
   width="16"
   height="16"
   version="1.1"
   id="svg2"
   sodipodi:docname="network-wireless-error-symbolic.svg"
   inkscape:version="1.4.2 (ebf0e940d0, 2025-05-08)"
   xmlns:inkscape="http://www.inkscape.org/namespaces/inkscape"
   xmlns:sodipodi="http://sodipodi.sourceforge.net/DTD/sodipodi-0.dtd"
   xmlns="http://www.w3.org/2000/svg"
   xmlns:svg="http://www.w3.org/2000/svg">
  <defs
     id="defs2">
     <style
        id="current-color-scheme"
        type="text/css">
        .ColorScheme-Text { color:#f2f2f2; }
        .ColorScheme-NeutralText { color:#f67400; }
        .ColorScheme-PositiveText { color:#37c837; }
        .ColorScheme-NegativeText { color:#f44336; }
     </style>
  </defs>
  <sodipodi:namedview
     id="namedview2"
     pagecolor="#ffffff"
     bordercolor="#000000"
     borderopacity="0.25"
     inkscape:showpageshadow="2"
     inkscape:pageopacity="0.0"
     inkscape:pagecheckerboard="0"
     inkscape:deskcolor="#d1d1d1"
     inkscape:zoom="49.6875"
     inkscape:cx="8"
     inkscape:cy="8"
     inkscape:window-width="1920"
     inkscape:window-height="1010"
     inkscape:window-x="0"
     inkscape:window-y="0"
     inkscape:window-maximized="1"
     inkscape:current-layer="svg2" />
  <path
     id="path1"
     style="fill:currentColor;opacity:0.3"
     class="ColorScheme-Text"
     d="M 8 3 C 5.1595 2.9999997 2.5675719 4.0071031 0.51367188 5.6582031 A 0.5 0.5 0 0 0 0.41796875 5.7304688 A 0.5 0.5 0 0 0 0.26367188 6.0898438 A 0.5 0.5 0 0 0 0.76367188 6.5898438 A 0.5 0.5 0 0 0 1.0820312 6.4765625 C 2.9730313 4.9377625 5.3718 4 8 4 C 10.6282 3.9999997 13.026869 4.9376825 14.917969 6.4765625 A 0.5 0.5 0 0 0 15.236328 6.5898438 A 0.5 0.5 0 0 0 15.736328 6.0898438 A 0.5 0.5 0 0 0 15.582031 5.7304688 A 0.5 0.5 0 0 0 15.486328 5.6582031 C 13.432425 4.0071031 10.8404 3 8 3 z M 8 6 C 5.9269 6 4.0319187 6.7172244 2.5117188 7.8964844 A 0.5 0.5 0 0 0 2.4101562 7.9707031 A 0.5 0.5 0 0 0 2.2539062 8.3320312 A 0.5 0.5 0 0 0 2.7539062 8.8320312 A 0.5 0.5 0 0 0 3.0742188 8.7167969 C 4.4330187 7.6479969 6.1369 7 8 7 C 8.90287 6.9999999 9.7673187 7.1551038 10.574219 7.4335938 A 4.5 4.5 0 0 1 12.109375 7.0175781 C 10.878575 6.3742381 9.4864 6 8 6 z M 8 9 C 6.6475 8.9999998 5.4167625 9.4689294 4.4140625 10.224609 C 4.3037225 10.319579 4.2461138 10.463785 4.2460938 10.609375 C 4.2460938 10.885515 4.4699538 11.109375 4.7460938 11.109375 C 4.8704538 11.109049 4.9902213 11.062396 5.0820312 10.978516 C 5.9041812 10.375456 6.9019 10 8 10 C 8.085502 10 8.16575 10.017002 8.25 10.021484 A 4.5 4.5 0 0 1 8.71875 9.0625 C 8.48198 9.032707 8.24543 9 8 9 z M 8 12 A 1 1 0 0 0 7 13 A 1 1 0 0 0 8 14 A 1 1 0 0 0 8.6230469 13.78125 A 4.5 4.5 0 0 1 8.0273438 12 A 1 1 0 0 0 8 12 z " />
  <path
     id="path2"
     style="fill:currentColor"
     class="ColorScheme-NegativeText error"
     d="M 12.5 8 C 10.567 8 9 9.567 9 11.5 C 9 13.433 10.567 15 12.5 15 C 14.433 15 16 13.433 16 11.5 C 16 9.567 14.433 8 12.5 8 z M 12.5 9 C 12.777 9 13 9.223 13 9.5 L 13 11.5 C 13 11.777 12.777 12 12.5 12 C 12.223 12 12 11.777 12 11.5 L 12 9.5 C 12 9.223 12.223 9 12.5 9 z M 12.488281 13 A 0.5 0.5 0 0 1 12.5 13 A 0.5 0.5 0 0 1 13 13.5 A 0.5 0.5 0 0 1 12.5 14 A 0.5 0.5 0 0 1 12 13.5 A 0.5 0.5 0 0 1 12.488281 13 z " />
</svg>

<svg width="16" height="16" version="1.1" xmlns="http://www.w3.org/2000/svg">
 <g fill="#f2f2f2">
  <path d="m8 3c-2.8405-3e-7 -5.4324 1.0071-7.4863 2.6582a0.5 0.5 0 0 0-0.095703 0.072266 0.5 0.5 0 0 0-0.1543 0.35938 0.5 0.5 0 0 0 0.5 0.5 0.5 0.5 0 0 0 0.31836-0.11328c1.891-1.5388 4.2898-2.4766 6.918-2.4766 2.6282-3e-7 5.0269 0.93772 6.918 2.4766a0.5 0.5 0 0 0 0.31836 0.11328 0.5 0.5 0 0 0 0.5-0.5 0.5 0.5 0 0 0-0.1543-0.35938 0.5 0.5 0 0 0-0.095703-0.072266c-2.0539-1.6511-4.6459-2.6582-7.4863-2.6582zm0 3c-2.0731 0-3.9681 0.71724-5.4883 1.8965a0.5 0.5 0 0 0-0.10156 0.074219 0.5 0.5 0 0 0-0.15625 0.36133 0.5 0.5 0 0 0 0.5 0.5 0.5 0.5 0 0 0 0.32031-0.11523c1.3588-1.0688 3.0627-1.7168 4.9258-1.7168 0.90287-1e-7 1.7673 0.1551 2.5742 0.43359a4.5 4.5 0 0 1 1.5352-0.41602c-1.2308-0.64334-2.623-1.0176-4.1094-1.0176zm0 3c-1.3525-2e-7 -2.5832 0.46892-3.5859 1.2246-0.11034 0.09497-0.16795 0.23918-0.16797 0.38477 0 0.27614 0.22386 0.5 0.5 0.5 0.12436-3.26e-4 0.24413-0.046979 0.33594-0.13086 0.82215-0.60306 1.8199-0.97852 2.918-0.97852 0.085502 0 0.16575 0.017002 0.25 0.021484a4.5 4.5 0 0 1 0.46875-0.95898c-0.23677-0.029793-0.47332-0.0625-0.71875-0.0625zm0 3a1 1 0 0 0-1 1 1 1 0 0 0 1 1 1 1 0 0 0 0.62305-0.21875 4.5 4.5 0 0 1-0.5957-1.7812 1 1 0 0 0-0.027344 0z"/>
 </g>
 <path class="error" d="m12.5 8c-1.933 0-3.5 1.567-3.5 3.5s1.567 3.5 3.5 3.5 3.5-1.567 3.5-3.5-1.567-3.5-3.5-3.5zm0 1c0.277 0 0.5 0.223 0.5 0.5v2c0 0.277-0.223 0.5-0.5 0.5s-0.5-0.223-0.5-0.5v-2c0-0.277 0.223-0.5 0.5-0.5zm-0.01172 4a0.5 0.5 0 0 1 0.01172 0 0.5 0.5 0 0 1 0.5 0.5 0.5 0.5 0 0 1-0.5 0.5 0.5 0.5 0 0 1-0.5-0.5 0.5 0.5 0 0 1 0.48828-0.5z" fill="#ff5555"/>
</svg>
